X:218
T: Seiwerlein (5), S. 37
N: T0106
O: Luxemburg
S: Singendes Volk, Esch-Alzette 1937 posth.]
N: HEFFINGEN; gesungen von fff Anna und Elisabeth
N: Kimmel am 28.8.1934
R: "erzhlende Lieder"]
M: 6/8
L: 1/16
K: F
C2 | F4F2c2c2c2 | d2c2d2c4
c2 | c2B2A2B2A2G2 | c3BA2G4
c2 | d2c2G2A2B2c2 | A2F4z6 |
B4A2G2A2B2 | c2c2c2G2A2B2 | A2F4z4

@@@ Tune index: 8272
